resources/haticons/SVG/portrait.svg

<!-- Generated by IcoMoon.io -->
<svg version="1.1" xmlns="http://www.w3.org/2000/svg" width="24" height="24" viewBox="0 0 24 24">
<title>portrait</title>
<path d="M18.984 18.984v-13.969h-13.969v13.969h13.969zM18.984 3q0.797 0 1.406 0.609t0.609 1.406v13.969q0 0.797-0.609 1.406t-1.406 0.609h-13.969q-0.797 0-1.406-0.609t-0.609-1.406v-13.969q0-0.797 0.609-1.406t1.406-0.609h13.969zM16.5 16.266v0.75h-9v-0.75q0-1.031 1.547-1.641t2.953-0.609 2.953 0.609 1.547 1.641zM12 12.234q-0.938 0-1.594-0.68t-0.656-1.57 0.656-1.57 1.594-0.68 1.594 0.68 0.656 1.57-0.656 1.57-1.594 0.68z"></path>
</svg>

<svg xmlns="http://www.w3.org/2000/svg" width="24" height="24"><path d="M18.984 18.984V5.015H5.015v13.969h13.969zm0-15.984q.797 0 1.406.609t.609 1.406v13.969q0 .797-.609 1.406t-1.406.609H5.015q-.797 0-1.406-.609T3 18.984V5.015q0-.797.609-1.406T5.015 3h13.969zM16.5 16.266v.75h-9v-.75q0-1.031 1.547-1.641T12 14.016t2.953.609 1.547 1.641zM12 12.234q-.938 0-1.594-.68t-.656-1.57.656-1.57T12 7.734t1.594.68.656 1.57-.656 1.57-1.594.68z"/></svg>
